; generated by SuperSlicer 2.3.57 on 2022-02-23 at 00:06:44 UTC

;

; external perimeters extrusion width = 0.25mm
; perimeters extrusion width = 0.40mm
; infill extrusion width = 0.40mm
; solid infill extrusion width = 0.40mm
; top infill extrusion width = 0.40mm
; first layer extrusion width = 0.40mm


M73 P0 R2
M73 Q0 S2
M201 X1000 Y1000 Z200 E5000 ; sets maximum accelerations, mm/sec^2
M203 X200 Y200 Z12 E120 ; sets maximum feedrates, mm/sec
M204 P1250 R1250 T1500 ; sets acceleration (P, T) and retract acceleration (R), mm/sec^2
M205 X8.00 Y8.00 Z0.40 E4.50 ; sets the jerk limits, mm/sec
M205 S0 T0 ; sets the minimum extruding and travel feed rate, mm/sec
;TYPE:Custom
M862.3 P "MK3SMMU2S" ; printer model check
M862.1 P0.25 ; nozzle diameter check
M115 U3.10.1 ; tell printer latest fw version
G90 ; use absolute coordinates
M83 ; extruder relative mode
M104 S200 ; set extruder temp
M140 S80 ; set bed temp
Tx
M190 S80 ; wait for bed temp
M109 S200 ; wait for extruder temp
G28 W ; home all without mesh bed level
G80 ; mesh bed leveling

`;go outside print area
G1 Y-3.0 F1000.0
G1 Z0.4 F1000.0
; select extruder
Tc
; purge line
G1 X55.0 F2000.0
M73 P1 R2
M73 Q1 S2
G1 Z0.3 F1000.0
G92 E0.0
G1 X240.0 E25.0 F1400.0
M73 P7 R2
M73 Q7 S2
G1 Y-2.0 F1000.0
G1 X55.0 E25 F1400.0
M73 P13 R2
M73 Q13 S2
G1 Z0.20 F1000.0
G1 X5.0 E4.0 F1000.0

M221 S95
G92 E0.0

; Don't change E value below. Excessive value can damage the printer.
M107
G21 ; set units to millimeters
G90 ; use absolute coordinates
M83 ; use relative distances for extrusion
M900 K0.05 ; Filament gcode LA 1.5
M900 K30 ; Filament gcode LA 1.0
;LAYER_CHANGE
;Z:0.15
;HEIGHT:0.15
;BEFORE_LAYER_CHANGE
G92 E0.0
;0.15


M73 P16 R2
M73 Q16 S2
G1 E-0.8 F2100
G1 Z0.15 F12000
G1 Z0.15
;AFTER_LAYER_CHANGE
;0.15
G1 Z0.3
M204 P1500
G1 X108.203 Y88.984
M73 P17 R2
M73 Q17 S2
G1 Z0.15
G1 E0.8 F2100
;TYPE:Skirt
;WIDTH:0.4
G1 F1800
G1 X107.697 Y89.716 E0.02041
G1 X107.314 Y90.519 E0.02041
G1 X107.064 Y91.373 E0.02041
G1 X106.954 Y92.256 E0.02041
G1 X106.95 Y117.635 E0.58213
M73 Q18 S2
G1 X107.106 Y118.815 E0.02732
G1 X107.511 Y119.935 E0.02732
G1 X108.149 Y120.948 E0.02745
G1 X108.984 Y121.797 E0.02732
M73 P18 R2
G1 X109.716 Y122.303 E0.02041
G1 X110.519 Y122.686 E0.02041
G1 X111.373 Y122.936 E0.02041
G1 X112.256 Y123.046 E0.02041
G1 X137.635 Y123.05 E0.58213
G1 X138.815 Y122.894 E0.02732
G1 X139.935 Y122.489 E0.02732
G1 X140.948 Y121.851 E0.02745
M73 Q19 S2
G1 X141.797 Y121.016 E0.02732
G1 X142.306 Y120.279 E0.02054
G1 X142.688 Y119.476 E0.02041
G1 X142.937 Y118.622 E0.02041
G1 X143.047 Y117.733 E0.02054
G1 X143.052 Y92.494 E0.57893
M73 P19 R2
G1 X143.008 Y91.808 E0.01575
G1 X142.793 Y90.826 E0.02307
G1 X142.407 Y89.904 E0.02293
G1 X141.862 Y89.066 E0.02293
G1 X141.175 Y88.339 E0.02293
G1 X140.364 Y87.744 E0.02307
G1 X139.465 Y87.308 E0.02293
G1 X138.502 Y87.039 E0.02293
G1 X137.506 Y86.948 E0.02293
M73 Q20 S2
G1 X112.115 Y86.962 E0.58239
M73 P20 R2
G1 X111.005 Y87.153 E0.02586
G1 X109.95 Y87.568 E0.02599
G1 X109.002 Y88.189 E0.02599
G1 X108.23 Y88.958 E0.025
G1 X108.37 Y89.075 F12000
M204 P1000
G1 X108.509 Y89.191
G1 F1800
G1 X108.026 Y89.882 E0.01933
G1 X107.661 Y90.641 E0.01933
G1 X107.425 Y91.444 E0.0192
G1 X107.321 Y92.281 E0.01933
G1 X107.317 Y117.61 E0.581
M73 P21 R2
M73 Q21 S2
G1 X107.459 Y118.707 E0.02537
G1 X107.832 Y119.754 E0.0255
G1 X108.42 Y120.698 E0.0255
G1 X109.191 Y121.491 E0.02537
G1 X109.882 Y121.974 E0.01933
G1 X110.641 Y122.339 E0.01933
G1 X111.444 Y122.575 E0.0192
G1 X112.281 Y122.679 E0.01933
G1 X137.61 Y122.683 E0.581
M73 P22 R2
M73 Q22 S2
G1 X138.707 Y122.541 E0.02537
G1 X139.754 Y122.168 E0.0255
G1 X140.698 Y121.58 E0.0255
G1 X141.491 Y120.809 E0.02537
G1 X141.974 Y120.118 E0.01933
G1 X142.339 Y119.359 E0.01933
G1 X142.578 Y118.545 E0.01946
G1 X142.68 Y117.708 E0.01933
G1 X142.648 Y91.89 E0.5922
M73 P23 R2
M73 Q23 S2
G1 X142.454 Y90.973 E0.02152
G1 X142.097 Y90.105 E0.02152
G1 X141.587 Y89.311 E0.02165
G1 X140.945 Y88.627 E0.02152
G1 X140.191 Y88.069 E0.02152
G1 X139.343 Y87.655 E0.02165
G1 X138.44 Y87.402 E0.02152
G1 X137.506 Y87.316 E0.02152
G1 X112.165 Y87.327 E0.58126
M73 Q24 S2
G1 X111.124 Y87.502 E0.02421
M73 P24 R2
G1 X110.145 Y87.882 E0.02409
G1 X109.258 Y88.455 E0.02421
G1 X108.536 Y89.165 E0.02323
;WIPE_START
G1 F9600
M204 P1250
G1 X108.026 Y89.882 E-0.18282
G1 X107.661 Y90.641 E-0.17515
G1 X107.425 Y91.444 E-0.17398
G1 X107.321 Y92.281 E-0.17515
G1 X107.321 Y92.535 E-0.05291
;WIPE_END
G1 E-0.04 F2100
G1 Z0.3 F12000
M204 P1500
G1 X110.148 Y92.756
M204 P1000
G1 X112.976 Y92.976
G1 Z0.15
G1 E0.8 F2100
;TYPE:Solid infill
G1 F1200
G1 X137.024 Y92.976 E0.55161
M73 P25 R2
M73 Q25 S2
G1 X137.024 Y117.024 E0.55161
M73 P26 R2
M73 Q26 S2
G1 X112.976 Y117.024 E0.55161
M73 P27 R2
M73 Q27 S2
G1 X112.976 Y93.013 E0.55075
M204 P1500
M73 P28 R2
M73 Q28 S2
G1 X113.16 Y93.178 F12000
M204 P1000
G1 X113.344 Y93.344
G1 F1200
G1 X136.656 Y93.344 E0.53474
M73 P29 R2
M73 Q29 S2
G1 X136.656 Y116.656 E0.53474
M73 Q30 S2
G1 X113.344 Y116.656 E0.53474
M73 P30 R1
M73 Q31 S1
G1 X113.344 Y93.381 E0.53388
M204 P1500
M73 P31 R1
M73 Q32 S1
G1 X113.528 Y93.546 F12000
M204 P1000
G1 X113.711 Y93.711
G1 F1200
G1 X136.289 Y93.711 E0.51786
M73 P32 R1
G1 X136.289 Y116.289 E0.51786
M73 P33 R1
M73 Q33 S1
G1 X113.711 Y116.289 E0.51786
M73 P34 R1
M73 Q34 S1
G1 X113.711 Y93.749 E0.517
M204 P1500
M73 P35 R1
M73 Q35 S1
G1 X113.895 Y93.914 F12000
M204 P1000
G1 X114.079 Y94.079
G1 F1200
G1 X135.921 Y94.079 E0.50099
M73 P36 R1
M73 Q36 S1
G1 X135.921 Y115.921 E0.50099
M73 P37 R1
M73 Q37 S1
G1 X114.079 Y115.921 E0.50099
M73 Q38 S1
G1 X114.079 Y94.117 E0.50013
M204 P1500
M73 P38 R1
G1 X114.263 Y94.282 F12000
M204 P1000
G1 X114.447 Y94.447
G1 F1200
G1 X135.553 Y94.447 E0.48412
M73 P39 R1
M73 Q39 S1
G1 X135.553 Y115.553 E0.48412
M73 P40 R1
M73 Q40 S1
G1 X114.447 Y115.553 E0.48412
M73 P41 R1
M73 Q41 S1
G1 X114.447 Y94.485 E0.48326
M204 P1500
M73 P42 R1
M73 Q42 S1
G1 X114.631 Y94.65 F12000
M204 P1000
G1 X114.815 Y94.815
G1 F1200
G1 X135.185 Y94.815 E0.46724
M73 Q43 S1
G1 X135.185 Y115.185 E0.46724
M73 P43 R1
G1 X114.815 Y115.185 E0.46724
M73 P44 R1
M73 Q44 S1
G1 X114.815 Y94.852 E0.46638
M204 P1500
M73 P45 R1
M73 Q45 S1
G1 X114.999 Y95.018 F12000
M204 P1000
G1 X115.183 Y95.183
G1 F1200
G1 X134.817 Y95.183 E0.45037
M73 P46 R1
M73 Q46 S1
G1 X134.817 Y114.817 E0.45037
M73 Q47 S1
G1 X115.183 Y114.817 E0.45037
M73 P47 R1
G1 X115.183 Y95.22 E0.44951
M204 P1500
M73 P48 R1
M73 Q48 S1
G1 X115.367 Y95.385 F12000
M204 P1000
G1 X115.55 Y95.55
G1 F1200
G1 X134.45 Y95.55 E0.4335
M73 P49 R1
M73 Q49 S1
G1 X134.45 Y114.45 E0.4335
M73 Q50 S1
G1 X115.55 Y114.45 E0.4335
M73 P50 R1
G1 X115.55 Y95.588 E0.43264
M204 P1500
M73 P51 R1
M73 Q51 S1
G1 X115.734 Y95.753 F12000
M204 P1000
G1 X115.918 Y95.918
G1 F1200
G1 X134.082 Y95.918 E0.41662
M73 P52 R1
M73 Q52 S1
G1 X134.082 Y114.082 E0.41662
G1 X115.918 Y114.082 E0.41662
M73 P53 R1
M73 Q53 S1
G1 X115.918 Y95.956 E0.41576
M204 P1500
M73 P54 R1
M73 Q54 S1
G1 X116.102 Y96.121 F12000
M204 P1000
G1 X116.286 Y96.286
G1 F1200
G1 X133.714 Y96.286 E0.39975
M73 Q55 S1
G1 X133.714 Y113.714 E0.39975
M73 P55 R1
G1 X116.286 Y113.714 E0.39975
M73 P56 R1
M73 Q56 S1
G1 X116.286 Y96.324 E0.39889
M204 P1500
M73 P57 R1
M73 Q57 S1
G1 X116.47 Y96.489 F12000
M204 P1000
G1 X116.654 Y96.654
G1 F1200
G1 X133.346 Y96.654 E0.38288
G1 X133.346 Y113.346 E0.38288
M73 P58 R1
M73 Q58 S1
G1 X116.654 Y113.346 E0.38288
M73 Q59 S1
G1 X116.654 Y96.691 E0.38202
M204 P1500
M73 P59 R1
G1 X116.838 Y96.857 F12000
M204 P1000
G1 X117.022 Y97.022
G1 F1200
G1 X132.978 Y97.022 E0.366
M73 P60 R1
M73 Q60 S1
G1 X132.978 Y112.978 E0.366
M73 Q61 S1
G1 X117.022 Y112.978 E0.366
M73 P61 R1
G1 X117.022 Y97.059 E0.36514
M204 P1500
M73 P62 R1
M73 Q62 S1
G1 X117.206 Y97.224 F12000
M204 P1000
G1 X117.39 Y97.39
G1 F1200
G1 X132.61 Y97.39 E0.34913
G1 X132.61 Y112.61 E0.34913
M73 P63 R1
M73 Q63 S1
G1 X117.39 Y112.61 E0.34913
M73 Q64 S1
G1 X117.39 Y97.427 E0.34827
M204 P1500
M73 P64 R1
G1 X117.573 Y97.592 F12000
M204 P1000
G1 X117.757 Y97.757
G1 F1200
G1 X132.243 Y97.757 E0.33226
M73 P65 R1
M73 Q65 S1
G1 X132.243 Y112.243 E0.33226
G1 X117.757 Y112.243 E0.33226
M73 P66 R1
M73 Q66 S1
G1 X117.757 Y97.795 E0.3314
M204 P1500
G1 X117.941 Y97.96 F12000
M204 P1000
G1 X118.125 Y98.125
G1 F1200
G1 X131.875 Y98.125 E0.31538
M73 P67 R1
M73 Q67 S1
G1 X131.875 Y111.875 E0.31538
M73 Q68 S1
G1 X118.125 Y111.875 E0.31538
M73 P68 R1
G1 X118.125 Y98.163 E0.31452
M204 P1500
M73 P69 R1
M73 Q69 S1
G1 X118.309 Y98.328 F12000
M204 P1000
G1 X118.493 Y98.493
G1 F1200
G1 X131.507 Y98.493 E0.29851
G1 X131.507 Y111.507 E0.29851
M73 P70 R1
M73 Q70 S1
G1 X118.493 Y111.507 E0.29851
G1 X118.493 Y98.53 E0.29765
M204 P1500
M73 P71 R1
M73 Q71 S1
G1 X118.677 Y98.696 F12000
M204 P1000
G1 X118.861 Y98.861
G1 F1200
G1 X131.139 Y98.861 E0.28164
G1 X131.139 Y111.139 E0.28164
M73 P72 R1
M73 Q72 S1
G1 X118.861 Y111.139 E0.28164
G1 X118.861 Y98.898 E0.28078
M204 P1500
M73 P73 R1
M73 Q73 S1
G1 X119.045 Y99.063 F12000
M204 P1000
G1 X119.229 Y99.229
G1 F1200
G1 X130.771 Y99.229 E0.26476
G1 X130.771 Y110.771 E0.26476
M73 Q74 S1
G1 X119.229 Y110.771 E0.26476
M73 P74 R1
G1 X119.229 Y99.266 E0.2639
M204 P1500
G1 X119.412 Y99.431 F12000
M204 P1000
G1 X119.596 Y99.596
G1 F1200
G1 X130.404 Y99.596 E0.24789
M73 P75 R1
M73 Q75 S1
G1 X130.404 Y110.404 E0.24789
G1 X119.596 Y110.404 E0.24789
M73 P76 R1
M73 Q76 S1
G1 X119.596 Y99.634 E0.24703
M204 P1500
G1 X119.78 Y99.799 F12000
M204 P1000
G1 X119.964 Y99.964
G1 F1200
G1 X130.036 Y99.964 E0.23102
M73 P77 R0
M73 Q77 S0
G1 X130.036 Y110.036 E0.23102
G1 X119.964 Y110.036 E0.23102
G1 X119.964 Y100.002 E0.23016
M204 P1500
M73 P78 R0
M73 Q78 S0
G1 X120.148 Y100.167 F12000
M204 P1000
G1 X120.332 Y100.332
G1 F1200
G1 X129.668 Y100.332 E0.21414
G1 X129.668 Y109.668 E0.21414
M73 Q79 S0
G1 X120.332 Y109.668 E0.21414
M73 P79 R0
G1 X120.332 Y100.37 E0.21328
M204 P1500
G1 X120.516 Y100.535 F12000
M204 P1000
G1 X120.7 Y100.7
G1 F1200
G1 X129.3 Y100.7 E0.19727
M73 P80 R0
M73 Q80 S0
G1 X129.3 Y109.3 E0.19727
G1 X120.7 Y109.3 E0.19727
G1 X120.7 Y100.737 E0.19641
M204 P1500
M73 P81 R0
M73 Q81 S0
G1 X120.884 Y100.902 F12000
M204 P1000
G1 X121.068 Y101.068
G1 F1200
G1 X128.932 Y101.068 E0.1804
G1 X128.932 Y108.932 E0.1804
G1 X121.068 Y108.932 E0.1804
M73 P82 R0
M73 Q82 S0
G1 X121.068 Y101.105 E0.17954
M204 P1500
G1 X121.252 Y101.27 F12000
M204 P1000
G1 X121.435 Y101.435
G1 F1200
G1 X128.565 Y101.435 E0.16352
G1 X128.565 Y108.565 E0.16352
G1 X121.435 Y108.565 E0.16352
M73 P83 R0
M73 Q83 S0
G1 X121.435 Y101.473 E0.16266
M204 P1500
G1 X121.619 Y101.638 F12000
M204 P1000
G1 X121.803 Y101.803
G1 F1200
G1 X128.197 Y101.803 E0.14665
G1 X128.197 Y108.197 E0.14665
M73 P84 R0
M73 Q84 S0
G1 X121.803 Y108.197 E0.14665
G1 X121.803 Y101.841 E0.14579
M204 P1500
G1 X121.987 Y102.006 F12000
M204 P1000
G1 X122.171 Y102.171
G1 F1200
G1 X127.829 Y102.171 E0.12978
G1 X127.829 Y107.829 E0.12978
M73 Q85 S0
G1 X122.171 Y107.829 E0.12978
M73 P85 R0
G1 X122.171 Y102.209 E0.12892
M204 P1500
G1 X122.355 Y102.374 F12000
M204 P1000
G1 X122.539 Y102.539
G1 F1200
G1 X127.461 Y102.539 E0.1129
G1 X127.461 Y107.461 E0.1129
G1 X122.539 Y107.461 E0.1129
M73 P86 R0
M73 Q86 S0
G1 X122.539 Y102.576 E0.11204
M204 P1500
G1 X122.723 Y102.742 F12000
M204 P1000
G1 X122.907 Y102.907
G1 F1200
G1 X127.093 Y102.907 E0.09603
G1 X127.093 Y107.093 E0.09603
G1 X122.907 Y107.093 E0.09603
G1 X122.907 Y102.944 E0.09517
M204 P1500
G1 X123.091 Y103.109 F12000
M204 P1000
G1 X123.274 Y103.274
G1 F1200
G1 X126.726 Y103.274 E0.07916
M73 P87 R0
M73 Q87 S0
G1 X126.726 Y106.726 E0.07916
G1 X123.274 Y106.726 E0.07916
G1 X123.274 Y103.312 E0.0783
M204 P1500
G1 X123.458 Y103.477 F12000
M204 P1000
G1 X123.642 Y103.642
G1 F1200
G1 X126.358 Y103.642 E0.06228
G1 X126.358 Y106.358 E0.06228
G1 X123.642 Y106.358 E0.06228
G1 X123.642 Y103.68 E0.06142
M204 P1500
G1 X123.826 Y103.845 F12000
M204 P1000
G1 X124.01 Y104.01
M73 P88 R0
G1 F1200
G1 X125.99 Y104.01 E0.04541
M73 Q88 S0
G1 X125.99 Y105.99 E0.04541
G1 X124.01 Y105.99 E0.04541
G1 X124.01 Y104.048 E0.04455
M204 P1500
G1 X124.194 Y104.213 F12000
M204 P1000
G1 X124.378 Y104.378
G1 F1200
G1 X125.622 Y104.378 E0.02854
G1 X125.622 Y105.622 E0.02854
G1 X124.378 Y105.622 E0.02854
G1 X124.378 Y104.415 E0.02768
M204 P1500
G1 X124.562 Y104.581 F12000
M204 P1000
G1 X124.746 Y104.746
G1 F1200
G1 X125.254 Y104.746 E0.01166
G1 X125.254 Y105.254 E0.01166
G1 X124.746 Y105.254 E0.01166
G1 X124.746 Y104.783 E0.0108
;WIPE_START
G1 F9600
M204 P1250
G1 X125.254 Y104.746 E-0.10597
G1 X125.254 Y105.254 E-0.10568
G1 X124.746 Y105.254 E-0.10568
G1 X124.746 Y104.783 E-0.09789
;WIPE_END
G1 E-0.38477 F2100
G1 Z0.3 F12000
M204 P1500
G1 X118.723 Y98.742
M204 P1000
G1 X112.7 Y92.7
M73 P89 R0
M73 Q89 S0
G1 Z0.15
G1 E0.8 F2100
;TYPE:External perimeter
G1 F600
G1 X137.3 Y92.7 E0.56427
M73 P91 R0
M73 Q91 S0
G1 X137.3 Y117.3 E0.56427
M73 P92 R0
M73 Q92 S0
G1 X112.7 Y117.3 E0.56427
M73 P94 R0
M73 Q94 S0
G1 X112.7 Y92.737 E0.56341
;WIPE_START
M204 P1250
M73 P96 R0
M73 Q96 S0
G1 X112.917 Y92.825 F12000
;WIPE_END
;WIPE_START
G1 F9600;_WIPE
G1 X116.574 Y92.825 E-0.76
;WIPE_END
G1 E-0.04 F2100
G1 Z0.3 F12000
;TYPE:Custom
; Filament-specific end gcode
G1 Z10.15 F720 ; Move print head up
M73 P97 R0
M73 Q97 S0
G1 X0 Y210 F7200
M73 P98 R0
M73 Q98 S0
G1 E2 F5000
G1 E2 F5500
G1 E2 F6000
G1 E-15.0000 F5800
G1 E-20.0000 F5500
M73 P99 R0
M73 Q99 S0
G1 E10.0000 F3000
G1 E-10.0000 F3100
G1 E10.0000 F3150
G1 E-10.0000 F3250
G1 E10.0000 F3300

M140 S0 ; turn off heatbed
M107 ; turn off fan
M702 C
G4 ; wait
M221 S100 ; reset flow
M900 K0 ; reset LA

M104 S0 ; turn off temperature
M84 ; disable motors
M73 P100 R0
M73 Q100 S0
; filament used [mm] = 45.53
; filament used [cm3] = 0.11
; filament used [g] = 0.14
; filament cost = 0.00
; total filament used [g] = 0.14
; total filament cost = 0.00
; total layers count = 1
; estimated printing time (normal mode) = 2m 8s
; estimated printing time (silent mode) = 2m 9s

; allow_empty_layers = 0
; avoid_crossing_not_first_layer = 1
; avoid_crossing_perimeters = 0
; avoid_crossing_perimeters_max_detour = 0
; bed_custom_model =
; bed_custom_texture =
; bed_shape = 0x0,250x0,250x210,0x210
; bed_temperature = 80
; before_layer_gcode = ;BEFORE_LAYER_CHANGE\nG92 E0.0\n;[layer_z]\n\n
; between_objects_gcode =
; bottom_fill_pattern = concentricgapfill
; bottom_solid_layers = 2
; bottom_solid_min_thickness = 0
; bridge_acceleration = 1000
; bridge_angle = 0
; bridge_fan_speed = 100
; bridge_flow_ratio = 100%
; bridge_internal_fan_speed = -1
; bridge_overlap = 90%
; bridge_overlap_min = 80%
; bridge_speed = 0
; bridge_speed_internal = 0
; bridged_infill_margin = 200%
; brim_ears = 0
; brim_ears_detection_length = 1
; brim_ears_max_angle = 125
; brim_ears_pattern = concentric
; brim_inside_holes = 0
; brim_offset = 0
; brim_width = 0
; brim_width_interior = 0
; chamber_temperature = 0
; clip_multipart_objects = 0
; color_change_gcode = M600\nG1 E0.3 F1500 ; prime after color change
; compatible_printers_condition_cummulative = ;"nozzle_diameter[0]!=0.8 and ! (printer_notes=~/.*PRINTER_VENDOR_PRUSA3D.*/ and printer_notes=~/.*PRINTER_MODEL_MK(2.5|3).*/ and single_extruder_multi_material)"
; complete_objects = 0
; complete_objects_one_brim = 0
; complete_objects_one_skirt = 0
; complete_objects_sort = object
; cooling = 1
; cooling_tube_length = 20
; cooling_tube_retraction = 40
; curve_smoothing_angle_concave = 0
; curve_smoothing_angle_convex = 0
; curve_smoothing_cutoff_dist = 2
; curve_smoothing_precision = 0
; default_acceleration = 2000
; default_filament_profile = "Prusament PLA"
; default_print_profile = 0.10mm DETAIL @0.25 nozzle MK3
; deretract_speed = 0
; disable_fan_first_layers = 1
; dont_support_bridges = 1
; draft_shield = 0
; duplicate_distance = 6
; end_filament_gcode = "; Filament-specific end gcode"
